X: 21
T: Acemaşîrân Sazsemâîsi
C: Mısırlı Udî İbrahim Efendi
O: Turkey
F: http://compmusic.upf.edu/node/140
N: acemasiran--sazsemaisi--aksaksemai----misirli_udi_ibrahim_efendi
N: makam= acemasiran
N: form= sazsemaisi
N: usul= aksaksemai = 10/8
M: 10/8
L: 1/16
K: C _B   
Q: 1/4=132
%%MIDI tuningsystem comma53
f4 e2de dcef gef6  | f2e2 d2c3dcB AGF6  | 
w:  1. HANE  |   | 
f2e2 d2e2 f2g2 a2gf edc2  | a4 g2fe d2ef gef4z2  | 
w:   |   | 
.f2.e2 .d2c3dcB ABc6  | .d2.c2 .B2A3GAG FGA6  | \
w:  TESLİM  |   | 
F2A2 c2c3dc2 B2A2 G2F2  | 
w:   | 
G4 A2G3FEF GEF4z2  | .f2.e2 .d2c3dcB ABc6  | \
w:   |  TESLİM  | 
.d2.c2 .B2A3GAG FGA6  | 
w:   | 
F2A2 c2c3dc2 B2A2 G2F2  | G4 A2G3FEF GEF4z2  | \
w:   |   | 
c4 _3/4d2dc cdc_2/4B ABc6  | 
w:  2. HANE  | 
c_3/4dcd c_2/4Bcd/e/ dccB BAA6  | \
w:   | 
c4 d2e2 f2g2 a2gf edc2  | 
w:   | 
a4 g2fe d2ef gef4z2  | .f2.e2 .d2c3dcB ABc6  | 
w:   |  TESLİM  | 
.d2.c2 .B2A3GAG FGA6  | F2A2 c2c3dc2 B2A2 G2F2  | \
w:   |   | 
G4 A2G3FEF GEF4z2  | 
w:   | 
.f2.e2 .d2c3dcB ABc6  | .d2.c2 .B2A3GAG FGA6  | \
w:  TESLİM  |   | 
F2A2 c2c3dc2 B2A2 G2F2  | 
w:   | 
G4 A2G3FEF GEF4z2  | a4 f2g3agf edc6  | \
w:   |  3. HANE  | 
c'4 a2f2 a2c'2 d'2c'6  | 
w:   | 
f'2e'2 d'2c'3d'c'2 b2a2 g2f2  | g4 a2g3fef gef4z2  | \
w:   |   | 
.f2.e2 .d2c3dcB ABc6  | 
w:  TESLİM  | 
.d2.c2 .B2A3GAG FGA6  | F2A2 c2c3dc2 B2A2 G2F2  | \
w:   |   | 
G4 A2G3FEF GEF4z2  | 
w:   | 
.f2.e2 .d2c3dcB ABc6  | .d2.c2 .B2A3GAG FGA6  | \
w:  TESLİM  |   | 
F2A2 c2c3dc2 B2A2 G2F2  | 
w:   | 
G4 A2G3FEF GEF4z2  | z12  | a2a2a2a2g2f2  | a12  | \
w:   |  |  4. HANE  |   | 
g4g2^f2g2a2  | 
w:   | 
g12  | e2d2c2c2B2A2  | d4d2f2e2d2  | c4A2B4G2  | A12  | \
w:   |   |   |   |   | 
a2a2a2a2g2f2  | 
w:   | 
a12  | g4g2^f2g2a2  | g12  | e2d2c2c2B2A2  | \
w:   |   |   |   | 
d4d2f2e2d2  | c4A2B4G2  | 
w:   |   | 
A12  | cdc=Bc2fgfef2  | abaga2c'6  | d'2c'2b2a2g2f2  | 
w:   |   |   |   | 
e2d2c2c6  | d4d2BcBAG2  | c4c2ABAGF2  | \
w:   |   |   | 
G6E4C2  | 
w:   | 
F6z4z2  | cdc=Bc2fgfef2  | abaga2c'6  | \
w:   |   |   | 
d'2c'2b2a2g2f2  | 
w:   | 
e2d2c2c6  | d4d2BcBAG2  | c4c2ABAGF2  | \
w:   |   |   | 
G6E4C2  | 
w:   | 
F6z4z2  | z20  | .f2.e2 .d2c3dcB ABc6  | \
w:   |  |  TESLİM  | 
.d2.c2 .B2A3GAG FGA6  | 
w:   | 
F2A2 c2c3dc2 B2A2 G2F2  | G4 A2G3FEF GEF4z2  | \
w:   |   | 
.f2.e2 .d2c3dcB ABc6  | 
w:  TESLİM  | 
.d2.c2 .B2A3GAG FGA6  | F2A2 c2c3dc2 B2A2 G2F2  | \
w:   |   | 
G4 A2G3FEF GEF4z2  | 
w:   | 
|


